X:1
T:Title
%%score { 1 | 2 }
L:1/8
M:3/4
K:F
V:1 treble nm="Grand Piano"
V:2 bass 
V:1
 z2 z2[Q:1/4=90] A>B | c3 d [EA][EG] | F4 FF | B3 A GF |[M:2/4] [EG]4 |[M:1/4] A>B | %6
[M:3/4] c3 d [CEA][B,EG] | [A,DF]4 [A,F][=B,FG] | [CFA][CFA] [CEA]2 [B,EG]2 |[M:2/4] [A,F]4 | %10
[M:1/4] [EG][FA] |[M:3/4] [GB]3 [^FA] [GB]G | c4 cc | d3 ^c de |[M:2/4] [Ec]4 |[M:1/4] A>B | %16
[M:3/4] c3 d [CEA][B,EG] | [A,DF]4 [A,F][=B,FG] | [CFA][CFA] [CEA]2 [B,EG]2 |[M:2/4] [A,F]4 |] %20
V:2
 z2 z2 [F,CF]>[F,B,F] | [F,A,F]3 [F,A,F] [C,C][C,B,] | [F,A,]4 [B,D][A,C] | %3
 [G,CE]3 [F,CF] [E,C][D,=B,D] |[M:2/4] [C,C]4 |[M:1/4] [F,CF]>[F,B,F] | %6
[M:3/4] [F,A,F]3 [F,A,F] C,C, | D,4 D,^C, | C,C, C,2 C,2 |[M:2/4] F,4 |[M:1/4] [C,C][C,C] | %11
[M:3/4] [C,C]3 [C,C] [C,C][K:treble][B,CE] | [A,CF]4 [A,CF][_A,CF] | %13
 [G,=B,F]3 [G,_B,E] [G,=B,F][G,B,G] |[M:2/4][K:bass] [C,C]4 |[M:1/4] [F,CF]>[F,B,F] | %16
[M:3/4] [F,A,F]3 [F,A,F] C,C, | D,4 D,^C, | C,C, C,2 C,2 |[M:2/4] F,4 |] %20

